SVG_Azure_All/Storage Sync Network.svg

<?xml version="1.0" encoding="UTF-8" standalone="no"?>
<!-- Generated by Microsoft Visio, SVG Export Storage Sync Network.svg Page-1 -->

<svg
   xmlns:dc="http://purl.org/dc/elements/1.1/"
   xmlns:cc="http://creativecommons.org/ns#"
   xmlns:rdf="http://www.w3.org/1999/02/22-rdf-syntax-ns#"
   xmlns:svg="http://www.w3.org/2000/svg"
   xmlns="http://www.w3.org/2000/svg"
   xmlns:sodipodi="http://sodipodi.sourceforge.net/DTD/sodipodi-0.dtd"
   xmlns:inkscape="http://www.inkscape.org/namespaces/inkscape"
   width="0.78235984in"
   height="0.78546077in"
   viewBox="0 0 56.329755 56.552975"
   xml:space="preserve"
   class="st5"
   version="1.1"
   id="svg44"
   sodipodi:docname="Storage Sync Network.svg"
   style="font-size:12px;overflow:visible;color-interpolation-filters:sRGB;fill:none;fill-rule:evenodd;stroke-linecap:square;stroke-miterlimit:3"
   inkscape:version="0.92.5 (2060ec1f9f, 2020-04-08)"><metadata
   id="metadata50"><rdf:RDF><cc:Work
       rdf:about=""><dc:format>image/svg+xml</dc:format><dc:type
         rdf:resource="http://purl.org/dc/dcmitype/StillImage" /></cc:Work></rdf:RDF></metadata><defs
   id="defs48" /><sodipodi:namedview
   pagecolor="#ffffff"
   bordercolor="#666666"
   borderopacity="1"
   objecttolerance="10"
   gridtolerance="10"
   guidetolerance="10"
   inkscape:pageopacity="0"
   inkscape:pageshadow="2"
   inkscape:window-width="640"
   inkscape:window-height="480"
   id="namedview46"
   showgrid="false"
   inkscape:zoom="1.7216666"
   inkscape:cx="37.555184"
   inkscape:cy="23.187775"
   inkscape:window-x="0"
   inkscape:window-y="0"
   inkscape:window-maximized="0"
   inkscape:current-layer="svg44" />
	<style
   type="text/css"
   id="style2">
	<![CDATA[
		.st1 {fill:#3999c6;stroke:none;stroke-linecap:butt;stroke-width:12.24}
		.st2 {fill:#57a300;stroke:none;stroke-linecap:butt;stroke-width:12.24}
		.st3 {fill:#b8d432;fill-opacity:0.4;stroke:none;stroke-linecap:butt;stroke-width:12.24}
		.st4 {fill:#ffffff;stroke:none;stroke-linecap:butt;stroke-width:12.24}
		.st5 {fill:none;fill-rule:evenodd;font-size:12px;overflow:visible;stroke-linecap:square;stroke-miterlimit:3}
	]]>
	</style>

	<g
   id="g42"
   transform="translate(-12.238533,-12.2413)">
		<title
   id="title4">Page-1</title>
		<g
   id="group878-1"
   transform="translate(12.0584,-34.0157)">
			<title
   id="title6">Storage Sync Network</title>
			<g
   id="group879-2">
				<title
   id="title8">Sheet.879</title>
				<g
   id="shape880-3"
   transform="translate(0,-23.893)">
					<title
   id="title10">Sheet.880</title>
					<path
   d="m 56.13,87.2 c 0.56,-0.57 0.45,-1.47 0,-2.04 L 53.43,82.45 41.28,70.57 c -0.56,-0.56 -1.35,-0.56 -1.91,0 -0.56,0.57 -0.67,1.47 0,2.04 l 12.71,12.55 c 0.57,0.57 0.57,1.47 0,2.04 l -12.93,13.01 a 1.43079,1.43641 -180 0 0 0,2.03 c 0.56,0.57 1.46,0.45 1.91,0 L 53.1,90.25 53.21,90.14 Z m -55.57,0 C 0,86.63 0.11,85.73 0.56,85.16 l 2.7,-2.71 12.15,-11.88 c 0.56,-0.56 1.35,-0.56 1.91,0 0.56,0.57 0.68,1.47 0,2.04 L 4.84,85.16 a 1.43079,1.43641 -180 0 0 0,2.04 l 12.71,13.01 c 0.56,0.56 0.56,1.47 0,2.03 -0.57,0.57 -1.47,0.45 -1.92,0 L 3.37,90.37 3.26,90.25 Z"
   class="st1"
   id="path12"
   inkscape:connector-curvature="0"
   style="fill:#3999c6;stroke:none;stroke-width:12.23999977;stroke-linecap:butt" />
				</g>
				<g
   id="shape881-5"
   transform="translate(13.1035,-36.9847)">
					<title
   id="title15">Sheet.881</title>
					<path
   d="m 7.65,99.07 c 0,2.15 -1.8,3.74 -3.71,3.74 C 2.03,102.81 0,101 0,99.07 c 0,-1.92 1.57,-3.73 3.94,-3.73 2.25,0 3.71,1.81 3.71,3.73 z m 11.36,0 c 0,2.15 -1.8,3.74 -3.71,3.74 -1.91,0 -3.94,-1.81 -3.94,-3.74 0,-1.92 1.8,-3.73 3.94,-3.73 2.14,0 3.71,1.81 3.71,3.73 z"
   class="st2"
   id="path17"
   inkscape:connector-curvature="0"
   style="fill:#57a300;stroke:none;stroke-width:12.23999977;stroke-linecap:butt" />
				</g>
				<g
   id="shape882-7"
   transform="translate(36.164,-36.9847)">
					<title
   id="title20">Sheet.882</title>
					<ellipse
   cx="3.7121601"
   cy="99.074898"
   rx="3.7121601"
   ry="3.7323999"
   class="st2"
   id="ellipse22"
   style="fill:#57a300;stroke:none;stroke-width:12.23999977;stroke-linecap:butt" />
				</g>
				<g
   id="shape883-9"
   transform="translate(27.2199)">
					<title
   id="title25">Sheet.883</title>
					<path
   d="m 21.09,72.91 c -7.45,-0.82 -8.7,-4.05 -8.7,-4.05 0,0 -1.67,4.24 -12.39,4.24 v 17.39 c 0,2.1 1.16,4.07 2.77,5.79 3.66,3.9 9.62,6.53 9.62,6.53 0,0 12.4,-5.45 12.4,-12.32 V 73.1 c -1.38,0 -2.61,-0.07 -3.7,-0.19 z"
   class="st2"
   id="path27"
   inkscape:connector-curvature="0"
   style="fill:#57a300;stroke:none;stroke-width:12.23999977;stroke-linecap:butt" />
				</g>
				<g
   id="shape884-11"
   transform="translate(27.2199,-6.62558)">
					<title
   id="title30">Sheet.884</title>
					<path
   d="m 15.31,86.77 5.58,-7.11 c -7.38,-0.82 -8.61,-4.01 -8.61,-4.01 0,0 -1.66,4.2 -12.28,4.2 v 17.22 c 0,2.08 1.15,4.03 2.75,5.74 l 4.12,-5.26 z"
   class="st3"
   id="path32"
   inkscape:connector-curvature="0"
   style="fill:#b8d432;fill-opacity:0.4;stroke:none;stroke-width:12.23999977;stroke-linecap:butt" />
				</g>
				<g
   id="shape885-13"
   transform="translate(33.9795,-10.1623)">
					<title
   id="title35">Sheet.885</title>
					<path
   d="m 10.7,94.89 h -0.56 v -2.28 a 4.50641,4.52412 -180 0 0 -9.01,0 v 2.28 H 0.56 a 0.570061,0.572302 -180 0 0 -0.564428,0.576826 L 0,102.23 c 0,0.32 0.25,0.58 0.56,0.58 H 10.7 a 0.570061,0.572302 -180 0 0 0.564428,-0.57683 L 11.27,95.47 A 0.572314,0.574564 -180 0 0 10.704445,94.892043 Z M 5.63,90.35 c 1.25,0 2.26,1.01 2.26,2.26 v 2.28 H 3.38 v -2.28 c 0,-1.25 1.01,-2.26 2.25,-2.26 z"
   class="st4"
   id="path37"
   inkscape:connector-curvature="0"
   style="fill:#ffffff;stroke:none;stroke-width:12.23999977;stroke-linecap:butt" />
				</g>
			</g>
		</g>
	</g>
</svg>

<?xml version="1.0" encoding="UTF-8" standalone="no"?>
<!DOCTYPE svg PUBLIC "-//W3C//DTD SVG 1.1//EN" "http://www.w3.org/Graphics/SVG/1.1/DTD/svg11.dtd">
<!-- Generated by Microsoft Visio, SVG Export Storage Sync Network.svg Page-1 -->
<svg xmlns="http://www.w3.org/2000/svg" xmlns:xlink="http://www.w3.org/1999/xlink" xmlns:ev="http://www.w3.org/2001/xml-events"
		width="1.12236in" height="1.42788in" viewBox="0 0 80.8097 102.807" xml:space="preserve" color-interpolation-filters="sRGB"
		class="st5">
	<style type="text/css">
	<![CDATA[
		.st1 {fill:#3999c6;stroke:none;stroke-linecap:butt;stroke-width:12.24}
		.st2 {fill:#57a300;stroke:none;stroke-linecap:butt;stroke-width:12.24}
		.st3 {fill:#b8d432;fill-opacity:0.4;stroke:none;stroke-linecap:butt;stroke-width:12.24}
		.st4 {fill:#ffffff;stroke:none;stroke-linecap:butt;stroke-width:12.24}
		.st5 {fill:none;fill-rule:evenodd;font-size:12px;overflow:visible;stroke-linecap:square;stroke-miterlimit:3}
	]]>
	</style>

	<g>
		<title>Page-1</title>
		<g id="group863-1" transform="translate(12.0584,-34.0157)">
			<title>Storage Sync Network</title>
			<g id="group864-2">
				<title>Sheet.864</title>
				<g id="shape865-3" transform="translate(0,-23.893)">
					<title>Sheet.865</title>
					<path d="M56.13 87.2 C56.69 86.63 56.58 85.73 56.13 85.16 L53.43 82.45 L41.28 70.57 C40.72 70.01 39.93 70.01
								 39.37 70.57 C38.81 71.14 38.7 72.04 39.37 72.61 L52.08 85.16 C52.65 85.73 52.65 86.63 52.08 87.2
								 L39.15 100.21 A1.43079 1.43641 -180 0 0 39.15 102.24 C39.71 102.81 40.61 102.69 41.06 102.24 L53.1
								 90.25 L53.21 90.14 L56.13 87.2 ZM0.56 87.2 C0 86.63 0.11 85.73 0.56 85.16 L3.26 82.45 L15.41 70.57
								 C15.97 70.01 16.76 70.01 17.32 70.57 C17.88 71.14 18 72.04 17.32 72.61 L4.84 85.16 A1.43079 1.43641
								 -180 0 0 4.84 87.2 L17.55 100.21 C18.11 100.77 18.11 101.68 17.55 102.24 C16.98 102.81 16.08 102.69
								 15.63 102.24 L3.37 90.37 L3.26 90.25 L0.56 87.2 Z" class="st1"/>
				</g>
				<g id="shape866-5" transform="translate(13.1035,-36.9847)">
					<title>Sheet.866</title>
					<path d="M7.65 99.07 C7.65 101.22 5.85 102.81 3.94 102.81 C2.03 102.81 0 101 0 99.07 C0 97.15 1.57 95.34 3.94
								 95.34 C6.19 95.34 7.65 97.15 7.65 99.07 ZM19.01 99.07 C19.01 101.22 17.21 102.81 15.3 102.81 C13.39
								 102.81 11.36 101 11.36 99.07 C11.36 97.15 13.16 95.34 15.3 95.34 C17.44 95.34 19.01 97.15 19.01
								 99.07 Z" class="st2"/>
				</g>
				<g id="shape867-7" transform="translate(36.164,-36.9847)">
					<title>Sheet.867</title>
					<ellipse cx="3.71216" cy="99.0749" rx="3.71216" ry="3.7324" class="st2"/>
				</g>
				<g id="shape868-9" transform="translate(27.2199,-2.84217E-13)">
					<title>Sheet.868</title>
					<path d="M21.09 72.91 C13.64 72.09 12.39 68.86 12.39 68.86 C12.39 68.86 10.72 73.1 0 73.1 L0 90.49 C0 92.59 1.16
								 94.56 2.77 96.28 C6.43 100.18 12.39 102.81 12.39 102.81 C12.39 102.81 24.79 97.36 24.79 90.49 L24.79
								 73.1 C23.41 73.1 22.18 73.03 21.09 72.91 Z" class="st2"/>
				</g>
				<g id="shape869-11" transform="translate(27.2199,-6.62558)">
					<title>Sheet.869</title>
					<path d="M15.31 86.77 L20.89 79.66 C13.51 78.84 12.28 75.65 12.28 75.65 C12.28 75.65 10.62 79.85 0 79.85 L0 97.07
								 C0 99.15 1.15 101.1 2.75 102.81 L6.87 97.55 L15.31 86.77 Z" class="st3"/>
				</g>
				<g id="shape870-13" transform="translate(33.9795,-10.1623)">
					<title>Sheet.870</title>
					<path d="M10.7 94.89 L10.14 94.89 L10.14 92.61 A4.50641 4.52412 -180 0 0 1.13 92.61 L1.13 94.89 L0.56 94.89 a0.570061
								 0.572302 -180 0 0 -0.564428 0.576826 L0 102.23 C0 102.55 0.25 102.81 0.56 102.81 L10.7 102.81 a0.570061
								 0.572302 -180 0 0 0.564428 -0.576826 L11.27 95.47 a0.572314 0.574564 -180 0 0 -0.565555 -0.577957
								 ZM5.63 90.35 C6.88 90.35 7.89 91.36 7.89 92.61 L7.89 94.89 L3.38 94.89 L3.38 92.61 C3.38 91.36 4.39
								 90.35 5.63 90.35 Z" class="st4"/>
				</g>
			</g>
		</g>
	</g>
</svg>
